Yaru++/apps/16/unetbootin.svg

<svg height="16" width="16" xmlns="http://www.w3.org/2000/svg">
  <path d="m13.835617 1.1465305c-1.365886-1.14972616-3.601541-.72560388-5.0127957.9510062l-.7642564.9079173-7.43199844 2.9250937c-.14135069.054216-.17122246.2402497-.05435663.3387591l2.77369397 2.3347458-.6368107.7565388c-.1745882.2072947-.3279511.4240867-.4604002.6465476l.8755365.736979-1.783192 2.11845.053325.562035 2.4655721 2.075397.5629071-.04323 1.7831881-2.11845.8754197.736872c.1966296-.168317.3840633-.356406.5586519-.563842l.6368142-.756539 3.0813445 2.593705c.118814.100281.300277.03544.325896-.116582l1.305418-8.0759373.764252-.9079173c1.411258-1.6766102 1.447658-3.9519311.08179-5.1016572z" fill="#808080"/>
</svg>

<svg xmlns="http://www.w3.org/2000/svg" width="16" height="16" version="1.1">
 <path style="fill:#808080" d="M 13.835617,1.1465305 C 12.469731,-0.00319566 10.234076,0.42092662 8.8228213,2.0975367 L 8.0585649,3.005454 0.62656646,5.9305477 C 0.48521577,5.9847637 0.455344,6.1707974 0.57220983,6.2693068 L 3.3459038,8.6040526 2.7090931,9.3605914 C 2.5345049,9.5678861 2.381142,9.7846781 2.2486929,10.007139 l 0.8755365,0.736979 -1.783192,2.11845 0.053325,0.562035 L 3.8599345,15.5 4.4228416,15.45677 6.2060297,13.33832 7.0814494,14.075192 C 7.278079,13.906875 7.4655127,13.718786 7.6401013,13.51135 l 0.6368142,-0.756539 3.0813445,2.593705 c 0.118814,0.100281 0.300277,0.03544 0.325896,-0.116582 l 1.305418,-8.0759373 0.764252,-0.9079173 c 1.411258,-1.6766102 1.447658,-3.9519311 0.08179,-5.1016572 z"/>
</svg>
